X:1
T:O perduti diletti
T:O perduti diletti
T:Giovanni Felice Sances
T:Source : Cantate et arie a voce sola---Libro IV---Venetia---A.Vincenti---1636. Editor : André Vierendeels (03/04/15).
T:Notes : Original clefs : C1, F4 Editorial accidentals above the staff Dotted brackets indicate black notes BC: "alfabetto per la chitarra alla spagnola" realised by the editor Figures in BC are notated in original print. Note values have been halved in 3/2 music
C:Giovanni Felice Sances
%%score 1 { ( 2 4 ) | 3 }
L:1/8
Q:1/4=120
M:4/4
K:C
V:1 treble nm="Canto" snm="C"
V:2 treble nm="BC" snm="BC"
V:4 treble 
V:3 bass 
V:1
 z2 D4 D2 | F4 F3 G | A4 A4 | c2 c3 _BBA | A2 G4 GG | G4 F4 | z2 AB c2 cc | c3 B c4 | z2 C2 E^FGG | %9
w: O per-|du- ti di-|let- ti|fiam- me del- l'i- dol|mio ca- r'et A-|ma- te,|pia- ghe, pia- ghe be-|a- te, _|so- spi- ri be- ne|
w: Va- ghe,|va- ghe bel-|lez- ze,|d'o- gni ma- gior bel-|lez- z'as- sai piu|bel- le,|fin- che pia- qu'al- le|stel- le, _|cen- tro del mio dol-|
w: Gior- ni|lie- ti'e se-|re- ne,|ch'o- ra vi trag- go'in|pe- n'et in do-|lo- ri,|fo- ste, fo- ste ba-|le- ni, _|mi la- scia- ste'in hor-|
 G3 ^F G4 | z2 B^c d2 dd | d3 ^c d4 | z2 D2 ^FGAA | A3 ^G A4 | z2 cc _B2 AA | A3 G A2 AE | F6 EE | %17
w: det- ti, _|lac- ci, lac- ci gra-|di- ti, _|pen- sie- ri ri- ve-|re- ti, _|be- ne- det- ti tor-|men- ti, _ be- ne-|det- ti tor-|
w: cez- ze, _|le- gria- dris- si- mo|vi- so, _|lu- mi di Pa- ra|di- so, _|so- a- vis- si- mi'ac-|cen- ti, _ so- a-|vis- si- mi'ac-|
w: ro- ri, _|a voi miei dol- ci|gior- ni, _|quan- do'a- ver- ra ch'io|tor- ni, _|fia ch'o- gn'hor vi ra-|men- ti, _ fia ch'o-|gn'hor vi- ra|
 E8 | D8 |[M:3/2] z4 A4 A4 | G6 F2 E4 | F12 | E12 | z4 d4 d4 | c6 B2 A4 | _B12 | A4 F4 G4 | %27
w: men-|ti.|O me-|mo- rie do-|len-|ti,|O me-|mo- rie do-|len-|ti, tra la|
w: cen-|ti.|||||||||
w: men-|ti.|||||||||
 A4 A4 _B4 | c4 c8- | c4 d2 c2 _B2 A2 | A4 G8 |[M:4/4] F4 z4 | z2 F2 E2 _E2 | D3 _E F3 G | %34
w: ro- ta cru-|del d'a-|* * spro mar- *|to- *|ro,|con an- go-|scio- se la- cri-|
w: |||||||
w: |||||||
 A2 AB B4 | A4 z4 | z2 A2 ^G2 =G2 | ^F2 =F2 E3 E | E8 |[M:3/2] F2 E2 F2 G2 A2 F2 | %40
w: me v'ho- _ no-|ro,|con an- go-|scio se la- gri-|me|v'ho _ _ _ _ _|
w: ||||||
w: ||||||
 _B2 c2 A2 B2 G2 D2 | F4 E8 | D12 |] %43
w: _ _ _ _ _ _|no- *|re.|
w: |||
w: |||
V:2
 [FA]8 | [DF]8 | [CE]8 | [CA]4 [D_B]4 | [CF]4 [DG]4 | [EG]4 [Ac]4 | [CA]4 [CG]4 | [DG]4 [EG]4 | %8
 c4 A2 G2 | [DA]4 [DB]4 | [DB]4 [DA]4 | A8 | [^FA]6 [EA]2 | z8 | [Ac]4 [D_B]2 [CA]2 | [DF]4 [Ec]4 | %16
 [CA]4 [DG]4 | [Ec]8 | [^FA]8 |[M:3/2] [FA]12 | [EA]12 | [FA]12 | [EA]12 | [DF]12 | [Fc]12 | %25
 [D_B]12 | [FA]8 [DG]4 | [Ec]8 [DG]4 | [FA]12 | [DF]12 | [EG]12 |[M:4/4] [Ac]4 [Gc]4 | %32
 [FA]4 [EA]2 [_EG]2 | [DG]2 [DF]2 [Fc]4 | [CA]2 [DA]2 [E^G]4 | [Ec]4 [EB]2 [DB]2 | %36
 [DA]4 [Ec]2 [Ge]2 | [Ad]2 [FA]2 [EA]4 | [EA]8 |[M:3/2] [FA]12 | [DG]12 | A4 _B4 c4 | [^FA]12 |] %43
V:3
 D,8 | _B,,8 | A,,8 | F,,4 G,,4 | A,,4 _B,,4 | C,4 F,,4 | F,4 E,4 | D,4 C,4 | C,4 C,2 B,,2 | %9
 A,,4 G,,4 | G,4 F,4 | E,4 D,4 | D,4 D,2 C,2 | B,,4 A,,4 | F,,4 G,,2 A,,2 | _B,,4 A,,4 | %16
 z2 D,A,, _B,,2 G,,2 | A,,8 | D,8 |[M:3/2] D,8 D,4 | E,4 ^C,8 | D,4 D4 D4 | C6 _B,2 A,4 | _B,12 | %24
 A,12 |"^b" G,8 G,,4 | D,4 C,4 _B,,4 | A,,8 G,,4 | F,,8 G,,4 | A,,4 _B,,8 | C,12 | %31
[M:4/4] F,,2 F,2 E,2 _E,2 | D,4 ^C,2 =C,2 |"^6" B,,2 _B,,2 A,,3 G,, | F,,2 D,,2 E,,4 | %35
 A,,2 A,2 ^G,2 =G,2 |"^3""^#" ^F,2 =F,2 E,2 ^C,2 |"^6""^#" D,2 A,,2 ^C,4 | ^C,8 |[M:3/2]"^b" D,12 | %40
"^b" G,,12 | A,,12 | D,12 |] %43
V:4
 x8 | x8 | x8 | x8 | x8 | x8 | x8 | x8 | E6 D2 | x8 | x8 | D3 E ^F4 | x8 | x8 | x8 | x8 | x8 | x8 | %18
 x8 |[M:3/2] x12 | x12 | x12 | x12 | x12 | x12 | x12 | x12 | x12 | x12 | x12 | x12 |[M:4/4] x8 | %32
 x8 | x8 | x8 | x8 | x8 | x8 | x8 |[M:3/2] x12 | x12 | D8 E4 | x12 |] %43

